X:56
T:Wind Chill
R:reel
C:Paul S. Cranford
O:Cape Breton Island
S:http://www.cranfordpub.com
D:currently unrecorded
B:currently unpublished in book form
Z:psc, (re-formatted,updated 9/17/04)
N:
H:                                                        copyrights Cranford Publications, SOCAN
L:1/8
Q:333
M:C|
K:Dmix
DEFG AGFD|F(d ~d2) E(c ~c2)|dcAG AGFA|1 dFAF E2 FE:|2dFAF E2||
||FG|Addf edcg|afgf edcG|Addf edcA|dFAF E2 FG|
Addf edcg|afgf edcg|agfd edcA|dFAF E2 FE||
